svgs/solid/book.svg

<svg xmlns="http://www.w3.org/2000/svg" viewBox="0 0 448 512"><!-- Font Awesome Pro 6.0.0-alpha2 by @fontawesome - https://fontawesome.com License - https://fontawesome.com/license (Commercial License) --><path d="M448 360V24C448 10.744 437.254 0 424 0H96C42.98 0 0 42.98 0 96V416C0 469.02 42.98 512 96 512H424C437.254 512 448 501.254 448 488V472C448 461.582 441.275 452.936 432 449.615V382.385C441.275 379.064 448 370.416 448 360ZM128 144C128 135.2 135.2 128 144 128H336C344.8 128 352 135.2 352 144V144C352 152.8 344.8 160 336 160H143.999C135.2 160 128 152.8 128 144.001V144ZM128 208C128 199.2 135.2 192 144 192H336C344.8 192 352 199.2 352 208V208C352 216.8 344.8 224 336 224H143.999C135.2 224 128 216.8 128 208.001V208ZM64 416C64 398.326 78.326 384 96 384H384V448H96C78.326 448 64 433.672 64 416Z"/></svg>

<svg xmlns="http://www.w3.org/2000/svg" viewBox="0 0 448 512"><!--! Font Awesome Pro 6.4.0 by @fontawesome - https://fontawesome.com License - https://fontawesome.com/license (Commercial License) Copyright 2023 Fonticons, Inc. --><path d="M96 0C43 0 0 43 0 96V416c0 53 43 96 96 96H384h32c17.7 0 32-14.3 32-32s-14.3-32-32-32V384c17.7 0 32-14.3 32-32V32c0-17.7-14.3-32-32-32H384 96zm0 384H352v64H96c-17.7 0-32-14.3-32-32s14.3-32 32-32zm32-240c0-8.8 7.2-16 16-16H336c8.8 0 16 7.2 16 16s-7.2 16-16 16H144c-8.8 0-16-7.2-16-16zm16 48H336c8.8 0 16 7.2 16 16s-7.2 16-16 16H144c-8.8 0-16-7.2-16-16s7.2-16 16-16z"/></svg>
